actions/24/document-edit-decrypt-verify.svg

<?xml version="1.0" encoding="UTF-8" standalone="no"?>
<svg
   width="24"
   height="24"
   version="1.1"
   id="svg9"
   sodipodi:docname="document-edit-decrypt-verify.svg"
   inkscape:version="1.1.2 (0a00cf5339, 2022-02-04)"
   xmlns:inkscape="http://www.inkscape.org/namespaces/inkscape"
   xmlns:sodipodi="http://sodipodi.sourceforge.net/DTD/sodipodi-0.dtd"
   xmlns="http://www.w3.org/2000/svg"
   xmlns:svg="http://www.w3.org/2000/svg">
  <sodipodi:namedview
     id="namedview11"
     pagecolor="#000000"
     bordercolor="#666666"
     borderopacity="1.0"
     inkscape:pageshadow="2"
     inkscape:pageopacity="0"
     inkscape:pagecheckerboard="0"
     showgrid="false"
     inkscape:zoom="40.187235"
     inkscape:cx="12.0063"
     inkscape:cy="13.959656"
     inkscape:window-width="1886"
     inkscape:window-height="967"
     inkscape:window-x="0"
     inkscape:window-y="29"
     inkscape:window-maximized="1"
     inkscape:current-layer="g7" />
  <defs
     id="defs3">
    <style
       id="current-color-scheme"
       type="text/css">
   .ColorScheme-Text { color:#eeeeec; } .ColorScheme-Highlight { color:#367bf0; } .ColorScheme-NeutralText { color:#ffcc44; } .ColorScheme-PositiveText { color:#3db47e; } .ColorScheme-NegativeText { color:#dd4747; }
  </style>
  </defs>
  <g
     transform="translate(4,4)"
     id="g7">
    <path
       style="fill:currentColor"
       class="ColorScheme-Text"
       d="M 2,2 V 4 H 4 V 2 Z M 7,2 V 4 H 9 V 2 Z m 5,0 v 2 h 2 V 2 Z M 4,5 V 7 H 6 V 5 Z m 6,0 v 2 h 2 V 5 Z M 2,8 v 6 c 0,1 1,1 1,1 h 10 c 0,0 1,0 1,-1 V 8 h -2 v 5 H 4 V 8 Z m 8.24292,0.2429202 -0.5218055,0.035965 -2.4255174,2.4255175 v 0 l -0.5625127,0.02868 -0.5348599,-0.534859 -0.4006737,0.0042 v 0 l -0.5601253,0.560126 v 0 l 0.010092,0.484943 1.3936467,1.393646 0.720984,-0.0033 v 0 L 10.696473,9.3035268 v 0 l 0.05665,-0.5503995 z"
       id="path5"
       sodipodi:nodetypes="ccccccccccccccccccccccccccsccsccccccccccccccccccccccccc" />
  </g>
</svg>

<svg xmlns="http://www.w3.org/2000/svg" width="24" height="24" version="1.1">
 <defs>
  <style id="current-color-scheme" type="text/css">
   .ColorScheme-Text { color:#eeeeec; } .ColorScheme-Highlight { color:#367bf0; } .ColorScheme-NeutralText { color:#ffcc44; } .ColorScheme-PositiveText { color:#3db47e; } .ColorScheme-NegativeText { color:#dd4747; }
  </style>
 </defs>
 <g transform="translate(4,4)">
  <path style="fill:currentColor" class="ColorScheme-Text" d="M 2,2 V 4 H 4 V 2 Z M 7,2 V 4 H 9 V 2 Z M 12,2 V 4 H 14 V 2 Z M 4,5 V 7 H 6 V 5 Z M 10,5 V 7 H 12 V 5 Z M 2,8 V 14 C 2,15 3,15 3,15 H 13 C 13,15 14,15 14,14 V 8 H 12 V 13 H 4 V 8 Z M 10,8 7,11 6,10 5,11 7,13 11,9 Z"/>
 </g>
</svg>
